src/images/common/sns-instagram_icon.svg

<svg fill="none" height="20" viewBox="0 0 20 20" width="20" xmlns="http://www.w3.org/2000/svg"><path d="m10 5.5c-.89002 0-1.76005.26392-2.50007.75839-.74002.49446-1.31679 1.19727-1.65739 2.01953-.34059.82227-.42971 1.72708-.25607 2.59998.17363.8729.60221 1.6747 1.23155 2.3041.62934.6293 1.43116 1.0579 2.30407 1.2315.87292.1737 1.77771.0846 2.60001-.256.8222-.3406 1.525-.9174 2.0195-1.6574.4945-.7401.7584-1.6101.7584-2.5001-.0012-1.19309-.4757-2.33697-1.3194-3.18061-.8436-.84364-1.9875-1.31815-3.1806-1.31939zm0 7.5c-.59334 0-1.17336-.1759-1.66671-.5056-.49335-.3296-.87787-.7982-1.10493-1.3463-.22706-.5482-.28647-1.15143-.17072-1.73337.11576-.58194.40148-1.11649.82104-1.53605s.95411-.70528 1.53605-.82104c.58194-.11575 1.18517-.05634 1.73337.17072.5481.22706 1.0167.61158 1.3463 1.10493.3297.49335.5056 1.07337.5056 1.66671 0 .7956-.3161 1.5587-.8787 2.1213s-1.3257.8787-2.1213.8787zm4.5-12.75h-9c-1.39193.001489-2.72642.555091-3.71067 1.53933-.984239.98425-1.537841 2.31874-1.53933 3.71067v9c.001489 1.3919.555091 2.7264 1.53933 3.7107.98425.9842 2.31874 1.5378 3.71067 1.5393h9c1.3919-.0015 2.7264-.5551 3.7107-1.5393.9842-.9843 1.5378-2.3188 1.5393-3.7107v-9c-.0015-1.39193-.5551-2.72642-1.5393-3.71067-.9843-.984239-2.3188-1.537841-3.7107-1.53933zm3.75 14.25c0 .9946-.3951 1.9484-1.0984 2.6516-.7032.7033-1.657 1.0984-2.6516 1.0984h-9c-.99456 0-1.94839-.3951-2.65165-1.0984-.70326-.7032-1.09835-1.657-1.09835-2.6516v-9c0-.99456.39509-1.94839 1.09835-2.65165s1.65709-1.09835 2.65165-1.09835h9c.9946 0 1.9484.39509 2.6516 1.09835.7033.70326 1.0984 1.65709 1.0984 2.65165zm-2.25-9.375c0 .2225-.066.44001-.1896.62502-.1236.185-.2993.3292-.5049.41434-.2055.08515-.4317.10743-.65.06402-.2182-.0434-.4187-.15055-.576-.30788-.1573-.15734-.2645-.35779-.3079-.57602s-.0211-.44443.064-.65c.0852-.20557.2294-.38127.4144-.50488.185-.12362.4025-.1896.625-.1896.2984 0 .5845.11853.7955.3295.211.21098.3295.49713.3295.7955z" fill="#fff"/></svg>

<svg width="20" height="20" viewBox="0 0 20 20" fill="none" xmlns="http://www.w3.org/2000/svg">
<path d="M10 5.5C9.10998 5.5 8.23995 5.76392 7.49993 6.25839C6.75991 6.75285 6.18314 7.45566 5.84254 8.27792C5.50195 9.10019 5.41283 10.005 5.58647 10.8779C5.7601 11.7508 6.18868 12.5526 6.81802 13.182C7.44736 13.8113 8.24918 14.2399 9.12209 14.4135C9.99501 14.5872 10.8998 14.4981 11.7221 14.1575C12.5443 13.8169 13.2471 13.2401 13.7416 12.5001C14.2361 11.76 14.5 10.89 14.5 10C14.4988 8.80691 14.0243 7.66303 13.1806 6.81939C12.337 5.97575 11.1931 5.50124 10 5.5ZM10 13C9.40666 13 8.82664 12.8241 8.33329 12.4944C7.83994 12.1648 7.45542 11.6962 7.22836 11.1481C7.0013 10.5999 6.94189 9.99667 7.05764 9.41473C7.1734 8.83279 7.45912 8.29824 7.87868 7.87868C8.29824 7.45912 8.83279 7.1734 9.41473 7.05764C9.99667 6.94189 10.5999 7.0013 11.1481 7.22836C11.6962 7.45542 12.1648 7.83994 12.4944 8.33329C12.8241 8.82664 13 9.40666 13 10C13 10.7956 12.6839 11.5587 12.1213 12.1213C11.5587 12.6839 10.7956 13 10 13ZM14.5 0.25H5.5C4.10807 0.251489 2.77358 0.805091 1.78933 1.78933C0.805091 2.77358 0.251489 4.10807 0.25 5.5V14.5C0.251489 15.8919 0.805091 17.2264 1.78933 18.2107C2.77358 19.1949 4.10807 19.7485 5.5 19.75H14.5C15.8919 19.7485 17.2264 19.1949 18.2107 18.2107C19.1949 17.2264 19.7485 15.8919 19.75 14.5V5.5C19.7485 4.10807 19.1949 2.77358 18.2107 1.78933C17.2264 0.805091 15.8919 0.251489 14.5 0.25ZM18.25 14.5C18.25 15.4946 17.8549 16.4484 17.1516 17.1516C16.4484 17.8549 15.4946 18.25 14.5 18.25H5.5C4.50544 18.25 3.55161 17.8549 2.84835 17.1516C2.14509 16.4484 1.75 15.4946 1.75 14.5V5.5C1.75 4.50544 2.14509 3.55161 2.84835 2.84835C3.55161 2.14509 4.50544 1.75 5.5 1.75H14.5C15.4946 1.75 16.4484 2.14509 17.1516 2.84835C17.8549 3.55161 18.25 4.50544 18.25 5.5V14.5ZM16 5.125C16 5.3475 15.934 5.56501 15.8104 5.75002C15.6868 5.93502 15.5111 6.07922 15.3055 6.16436C15.1 6.24951 14.8738 6.27179 14.6555 6.22838C14.4373 6.18498 14.2368 6.07783 14.0795 5.9205C13.9222 5.76316 13.815 5.56271 13.7716 5.34448C13.7282 5.12625 13.7505 4.90005 13.8356 4.69448C13.9208 4.48891 14.065 4.31321 14.25 4.1896C14.435 4.06598 14.6525 4 14.875 4C15.1734 4 15.4595 4.11853 15.6705 4.3295C15.8815 4.54048 16 4.82663 16 5.125Z" fill="white"/>
</svg>
